assets/img/icons/webhook.svg

<svg fill="none" height="25" viewBox="0 0 24 25" width="24" xmlns="http://www.w3.org/2000/svg" xmlns:xlink="http://www.w3.org/1999/xlink"><linearGradient id="a" gradientUnits="userSpaceOnUse" x1="10.2859" x2="13.8215" y1="7.41313" y2="3.8776"><stop offset="0" stop-color="#4c98ed"/><stop offset="1" stop-color="#e5a7de"/></linearGradient><clipPath id="b"><path d="m0 .063477h24v24h-24z"/></clipPath><g clip-path="url(#b)"><path clip-rule="evenodd" d="m14.8955 20.9516c.3162-.3121.821-.31 1.1274.0047.4532.4654 1.0158.7982 1.63.9672.614.169 1.2589.1686 1.8704.0004.6115-.1683 1.1702-.4992 1.6197-.9608.4496-.4618.7748-1.0389.9407-1.6747s.1662-1.3068-.0003-1.945-.4935-1.2192-.9467-1.6846c-.4531-.4654-1.0157-.7982-1.6299-.9672-.6141-.169-1.259-.1687-1.8705-.0004-.3385.0932-.6952-.046-.8796-.3433l-4.6079-7.42731c-.232-.37403-.1168-.87013.2575-1.10806.3742-.23794.8657-.12761 1.0978.24642l4.3172 6.95875c.707-.1076 1.4296-.0657 2.1224.125.8867.244 1.6926.7226 2.3381 1.3856.6454.6629 1.1086 1.4874 1.3442 2.3906.2356.9031.236 1.855-.0003 2.7605-.2363.9057-.7012 1.734-1.3502 2.4006-.6492.6667-1.459 1.1473-2.3483 1.392s-1.8246.2444-2.7113.0004c-.8866-.244-1.6925-.7227-2.3381-1.3856-.3064-.3148-.2985-.823.0177-1.1352z" fill="#2e3c47" fill-rule="evenodd"/><path d="m13.7679 3.82403c.9763.97631.9763 2.55922 0 3.53553s-2.5592.97631-3.5355 0c-.97634-.97631-.97634-2.55922 0-3.53553.9763-.97631 2.5592-.97631 3.5355 0z" fill="url(#a)"/><path clip-rule="evenodd" d="m13.2173 2.03198c-.562-.19594-1.1617-.24632-1.7464-.14718-.5848.09916-1.1386.34518-1.61184.71816-.47341.37307-.85198.86196-1.10025 1.42471-.2483.56284-.35803 1.18098-.31857 1.79929.03946.6183.22675 1.2158.54387 1.73954.31705.52365.75355.95662 1.26919 1.26234.362.21469.4958.67324.3059 1.04893l-4.04867 8.01233c-.19927.3943-.68048.5524-1.07482.3532-.39434-.1993-.55248-.6805-.35322-1.0749l3.73604-7.39346c-.47551-.38426-.88291-.85093-1.20309-1.37974-.45155-.74577-.71621-1.59288-.77195-2.46634-.05574-.87344.09902-1.74814.45145-2.547.35248-.79895.89237-1.49858 1.57377-2.03558.68154-.537089 1.48329-.894598 2.33469-1.038959.8514-.144372 1.7243-.070758 2.5406.213841.8162.28456 1.5493.770698 2.1353 1.413288.5859.64248 1.007 1.42166 1.2277 2.26782.1116.42752-.1446.86451-.5721.97605s-.8645-.14461-.9761-.57213c-.1559-.59785-.4526-1.14497-.8617-1.59361-.409-.44852-.9177-.78462-1.4798-.9806z" fill="#2e3c47" fill-rule="evenodd"/><path d="m8.01489 18.2793c0 1.3807-1.11929 2.5-2.5 2.5s-2.5-1.1193-2.5-2.5 1.11929-2.5 2.5-2.5 2.5 1.1193 2.5 2.5z" fill="#6471b9"/><path clip-rule="evenodd" d="m3.61471 15.0593c.38004-.2254.50544-.7161.2801-1.0962-.22535-.38-.71611-.5054-1.09615-.2801-.79523.4716-1.45299 1.1482-1.909247 1.9598-.456186.8115-.695565 1.7305-.695565 2.6647s.239378 1.8532.695564 2.6647c.456258.8116 1.114008 1.4882 1.909248 1.9598l.40802-.6882-.40802.6882c.7954.4716 1.69938.7208 2.62086.7208s1.82546-.2492 2.62086-.7208c.79523-.4716 1.45298-1.1482 1.90924-1.9598.32498-.5782.53998-1.2108.63668-1.8647h5.3815c.3418.9737 1.2692 1.6718 2.3596 1.6718 1.3807 0 2.5-1.1193 2.5-2.5s-1.1193-2.5-2.5-2.5c-1.1114 0-2.0534.7252-2.3786 1.7282h-6.10361c-.44183 0-.8.3582-.8.8 0 .6615-.16961 1.3102-.49029 1.8806-.32061.5703-.78023 1.0413-1.33057 1.3676-.55017.3262-1.17256.4971-1.80481.4971-.63226 0-1.25464-.1709-1.80481-.4971-.55034-.3263-1.00996-.7973-1.33057-1.3676-.32068-.5704-.49029-1.2191-.49029-1.8806s.16961-1.3102.49029-1.8806c.32061-.5703.78023-1.0413 1.33057-1.3676z" fill="#2e3c47" fill-rule="evenodd"/></g></svg>

<svg width="24" height="25" viewBox="0 0 24 25" fill="none" xmlns="http://www.w3.org/2000/svg">
<g clip-path="url(#clip0_5018_30053)">
<path fill-rule="evenodd" clip-rule="evenodd" d="M14.8955 20.9516C15.2117 20.6395 15.7165 20.6416 16.0229 20.9563C16.4761 21.4217 17.0387 21.7545 17.6529 21.9235C18.2669 22.0925 18.9118 22.0921 19.5233 21.9239C20.1348 21.7556 20.6935 21.4247 21.143 20.9631C21.5926 20.5013 21.9178 19.9242 22.0837 19.2884C22.2496 18.6526 22.2499 17.9816 22.0834 17.3434C21.9169 16.7052 21.5899 16.1242 21.1367 15.6588C20.6836 15.1934 20.121 14.8606 19.5068 14.6916C18.8927 14.5226 18.2478 14.5229 17.6363 14.6912C17.2978 14.7844 16.9411 14.6452 16.7567 14.3479L12.1488 6.92059C11.9168 6.54656 12.032 6.05046 12.4063 5.81253C12.7805 5.57459 13.272 5.68492 13.5041 6.05895L17.8213 13.0177C18.5283 12.9101 19.2509 12.952 19.9437 13.1427C20.8304 13.3867 21.6363 13.8653 22.2818 14.5283C22.9272 15.1912 23.3904 16.0157 23.626 16.9189C23.8616 17.822 23.862 18.7739 23.6257 19.6794C23.3894 20.5851 22.9245 21.4134 22.2755 22.08C21.6263 22.7467 20.8165 23.2273 19.9272 23.472C19.0379 23.7167 18.1026 23.7164 17.2159 23.4724C16.3293 23.2284 15.5234 22.7497 14.8778 22.0868C14.5714 21.772 14.5793 21.2638 14.8955 20.9516Z" fill="#2E3C47"/>
<path d="M13.7679 3.82403C14.7442 4.80034 14.7442 6.38325 13.7679 7.35956C12.7916 8.33587 11.2087 8.33587 10.2324 7.35956C9.25606 6.38325 9.25606 4.80034 10.2324 3.82403C11.2087 2.84772 12.7916 2.84772 13.7679 3.82403Z" fill="url(#paint0_linear_5018_30053)"/>
<path fill-rule="evenodd" clip-rule="evenodd" d="M13.2173 2.03198C12.6553 1.83604 12.0556 1.78566 11.4709 1.8848C10.8861 1.98396 10.3323 2.22998 9.85906 2.60296C9.38565 2.97603 9.00708 3.46492 8.75881 4.02767C8.51051 4.59051 8.40078 5.20865 8.44024 5.82696C8.4797 6.44526 8.66699 7.04276 8.98411 7.5665C9.30116 8.09015 9.73766 8.52312 10.2533 8.82884C10.6153 9.04353 10.7491 9.50208 10.5592 9.87777L6.51053 17.8901C6.31126 18.2844 5.83005 18.4425 5.43571 18.2433C5.04137 18.044 4.88323 17.5628 5.08249 17.1684L8.81853 9.77494C8.34302 9.39068 7.93562 8.92401 7.61544 8.3952C7.16389 7.64943 6.89923 6.80232 6.84349 5.92886C6.78775 5.05542 6.94251 4.18072 7.29494 3.38186C7.64742 2.58291 8.18731 1.88328 8.86871 1.34628C9.55025 0.809191 10.352 0.451682 11.2034 0.307321C12.0548 0.162949 12.9277 0.236563 13.744 0.521162C14.5602 0.805722 15.2933 1.29186 15.8793 1.93445C16.4652 2.57693 16.8863 3.35611 17.107 4.20227C17.2186 4.62979 16.9624 5.06678 16.5349 5.17832C16.1074 5.28986 15.6704 5.03371 15.5588 4.60619C15.4029 4.00834 15.1062 3.46122 14.6971 3.01258C14.2881 2.56406 13.7794 2.22796 13.2173 2.03198Z" fill="#2E3C47"/>
<path d="M8.01489 18.2793C8.01489 19.66 6.8956 20.7793 5.51489 20.7793C4.13418 20.7793 3.01489 19.66 3.01489 18.2793C3.01489 16.8986 4.13418 15.7793 5.51489 15.7793C6.8956 15.7793 8.01489 16.8986 8.01489 18.2793Z" fill="#6471B9"/>
<path fill-rule="evenodd" clip-rule="evenodd" d="M3.61471 15.0593C3.99475 14.8339 4.12015 14.3432 3.89481 13.9631C3.66946 13.5831 3.1787 13.4577 2.79866 13.683C2.00343 14.1546 1.34567 14.8312 0.889413 15.6428C0.433227 16.4543 0.193848 17.3733 0.193848 18.3075C0.193848 19.2417 0.433226 20.1607 0.889412 20.9722C1.34567 21.7838 2.00342 22.4604 2.79866 22.932L3.20668 22.2438L2.79866 22.932C3.59406 23.4036 4.49804 23.6528 5.41952 23.6528C6.341 23.6528 7.24498 23.4036 8.04038 22.932C8.83561 22.4604 9.49336 21.7838 9.94962 20.9722C10.2746 20.394 10.4896 19.7614 10.5863 19.1075H15.9678C16.3096 20.0812 17.237 20.7793 18.3274 20.7793C19.7081 20.7793 20.8274 19.66 20.8274 18.2793C20.8274 16.8986 19.7081 15.7793 18.3274 15.7793C17.216 15.7793 16.274 16.5045 15.9488 17.5075H9.84519C9.40336 17.5075 9.04519 17.8657 9.04519 18.3075C9.04519 18.969 8.87558 19.6177 8.5549 20.1881C8.23429 20.7584 7.77467 21.2294 7.22433 21.5557C6.67416 21.8819 6.05177 22.0528 5.41952 22.0528C4.78726 22.0528 4.16488 21.8819 3.61471 21.5557C3.06437 21.2294 2.60475 20.7584 2.28414 20.1881C1.96346 19.6177 1.79385 18.969 1.79385 18.3075C1.79385 17.646 1.96346 16.9973 2.28414 16.4269C2.60475 15.8566 3.06437 15.3856 3.61471 15.0593Z" fill="#2E3C47"/>
</g>
<defs>
<linearGradient id="paint0_linear_5018_30053" x1="10.2859" y1="7.41313" x2="13.8215" y2="3.8776" gradientUnits="userSpaceOnUse">
<stop stop-color="#4C98ED"/>
<stop offset="1" stop-color="#E5A7DE"/>
</linearGradient>
<clipPath id="clip0_5018_30053">
<rect width="24" height="24" fill="white" transform="translate(0 0.0634766)"/>
</clipPath>
</defs>
</svg>
